X: 389
T: Sr Phillip Mc Que
%R: slip-jig
Z: 2014 John Chambers <jc:trillian.mit.edu>
B: Preston "Twenty four Country Dances for the Year 1800" p.175 #1
F: http://www.vwml.org/browse/browse-collections-dance-tune-books/browse-prestons1800# 2014-8-10
M: 9/8
L: 1/8
K: D
|:\
d2f faf g2e | f2d ged c2A |\
d2f faf g2e | f2d gec d3 :|
|:\
efe ecA cBA | efe ecA B3 |\
efe ecA cBA | faf gec d3 :|
% - - - - - - - - - - - - - - - - - - - - - - - - -
%%begintext align
%% Hands 3 round with 2d Lady .| hands 3
%% round with 2d Gent: lead down the middle
%% up again and cast of :|:
%%endtext
% - - - - - - - - - - - - - - - - - - - - - - - - -

%%sep 1 1 500
%%sep 1 1 500
